src/assets/icons/richtext-italic.svg

<svg width="16" height="16" viewBox="0 0 16 16" fill="none" xmlns="http://www.w3.org/2000/svg">
<g clip-path="url(#clip0_8874_15346)">
<path fill-rule="evenodd" clip-rule="evenodd" d="M6.70752 0.571023C6.56568 0.602019 6.45084 0.663346 6.33245 0.771329C6.11855 0.966404 6.04103 1.15816 6.0544 1.459C6.0617 1.62321 6.06785 1.65002 6.1245 1.76462C6.23699 1.99225 6.41841 2.15128 6.64564 2.22146C6.7519 2.25427 6.80775 2.2554 8.3352 2.2554H9.91486L7.04258 7.99993L4.1703 13.7445H2.43678C0.758645 13.7445 0.699798 13.7455 0.594601 13.7782C0.386225 13.843 0.192057 14.0115 0.0918693 14.2146C-0.138391 14.6814 0.0793374 15.2185 0.575726 15.408L0.674016 15.4456L4.90548 15.4505C7.84842 15.4538 9.17077 15.4498 9.24807 15.4371C9.54442 15.3884 9.8271 15.1419 9.91664 14.8542C9.96075 14.7125 9.96022 14.4852 9.91546 14.3404C9.83278 14.0728 9.62103 13.8608 9.35436 13.7784C9.2481 13.7456 9.19225 13.7445 7.6648 13.7445H6.08514L8.95742 7.99993L11.8297 2.2554H13.5632C15.2414 2.2554 15.3002 2.25432 15.4054 2.22163C15.6138 2.15687 15.8079 1.98831 15.9081 1.78524C16.1384 1.31841 15.9207 0.781399 15.4243 0.591813L15.326 0.554268L11.0689 0.551259C7.57733 0.54878 6.79302 0.552336 6.70752 0.571023Z" fill="currentColor"/>
</g>
<defs>
<clipPath id="clip0_8874_15346">
<rect width="16" height="16" fill="white"/>
</clipPath>
</defs>
</svg>

<svg xmlns="http://www.w3.org/2000/svg" width="16" height="16" fill="none">
  <g clip-path="url(#a)">
    <path fill="currentColor" fill-rule="evenodd" d="M6.708.571a.778.778 0 0 0-.376.2c-.213.195-.291.387-.278.688.008.164.014.191.07.306a.861.861 0 0 0 .522.456c.106.033.162.034 1.69.034h1.579L7.043 8 4.17 13.745H2.437c-1.678 0-1.737 0-1.842.033a.875.875 0 0 0-.503.437c-.23.466-.013 1.004.484 1.193l.098.038 4.231.005c2.943.003 4.266-.001 4.343-.014a.889.889 0 0 0 .669-.583 1.007 1.007 0 0 0-.002-.514.854.854 0 0 0-.56-.562c-.107-.032-.163-.034-1.69-.034h-1.58L8.957 8l2.873-5.745h1.733c1.678 0 1.737 0 1.842-.033a.875.875 0 0 0 .503-.437c.23-.467.013-1.004-.484-1.193l-.098-.038-4.257-.003C7.577.55 6.793.552 6.708.571Z" clip-rule="evenodd"/>
  </g>
  <defs>
    <clipPath id="a">
      <path fill="#fff" d="M0 0h16v16H0z"/>
    </clipPath>
  </defs>
</svg>
